assets/img/i-d-remoto.svg

<svg width="90" height="90" viewBox="0 0 90 90" fill="none" xmlns="http://www.w3.org/2000/svg">
<path d="M73.6857 15.8934C76.7217 15.8934 79.1828 13.8344 79.1828 11.2945C79.1828 8.75462 76.7217 6.69562 73.6857 6.69562C70.6496 6.69562 68.1885 8.75462 68.1885 11.2945C68.1885 13.8344 70.6496 15.8934 73.6857 15.8934Z" fill="#00C4D1"/>
<path d="M85.3181 7.78351C87.3421 7.78351 88.9829 6.41084 88.9829 4.71758C88.9829 3.02431 87.3421 1.65164 85.3181 1.65164C83.2941 1.65164 81.6533 3.02431 81.6533 4.71758C81.6533 6.41084 83.2941 7.78351 85.3181 7.78351Z" fill="#9D3BFF"/>
<path d="M3.3572 74.6209C5.07434 74.6209 6.46636 73.4563 6.46636 72.0198C6.46636 70.5833 5.07434 69.4187 3.3572 69.4187C1.64006 69.4187 0.248047 70.5833 0.248047 72.0198C0.248047 73.4563 1.64006 74.6209 3.3572 74.6209Z" fill="#9D3BFF"/>
<path d="M11.6799 85.8462C14.5397 85.8462 16.8579 83.9067 16.8579 81.5143C16.8579 79.1219 14.5397 77.1824 11.6799 77.1824C8.82022 77.1824 6.50195 79.1219 6.50195 81.5143C6.50195 83.9067 8.82022 85.8462 11.6799 85.8462Z" fill="#00C4D1"/>
<path d="M47.1571 30.0264C46.5959 30.0264 46.0577 29.8399 45.6608 29.5079C45.264 29.1759 45.041 28.7256 45.041 28.256V22.0352C45.041 21.8027 45.0958 21.5725 45.2021 21.3577C45.3084 21.1429 45.4643 20.9477 45.6608 20.7833C45.8573 20.619 46.0906 20.4886 46.3473 20.3996C46.6041 20.3106 46.8792 20.2648 47.1571 20.2648C47.435 20.2648 47.7102 20.3106 47.9669 20.3996C48.2237 20.4886 48.457 20.619 48.6535 20.7833C48.85 20.9477 49.0058 21.1429 49.1122 21.3577C49.2185 21.5725 49.2733 21.8027 49.2733 22.0352V28.256C49.2733 28.7256 49.0503 29.1759 48.6535 29.5079C48.2566 29.8399 47.7184 30.0264 47.1571 30.0264Z" fill="#00C4D1"/>
<path d="M47.5356 22.6088C47.0935 22.6088 46.6696 22.4619 46.357 22.2003C46.0444 21.9388 45.8687 21.5841 45.8687 21.2143V16.6945C45.8656 15.7405 45.4113 14.8264 44.6049 14.1518C43.7986 13.4772 42.7059 13.0971 41.5656 13.0945H28.0413C27.0369 13.0945 26.0423 12.929 25.1143 12.6074C24.1863 12.2858 23.3431 11.8145 22.6328 11.2203C21.9226 10.6261 21.3592 9.9207 20.9748 9.14435C20.5904 8.368 20.3926 7.53591 20.3926 6.69559C20.3926 5.85528 20.5904 5.02319 20.9748 4.24684C21.3592 3.47049 21.9226 2.76508 22.6328 2.17089C23.3431 1.5767 24.1863 1.10536 25.1143 0.783781C26.0423 0.462206 27.0369 0.296693 28.0413 0.296693H66.0369C66.2684 0.280398 66.5014 0.304478 66.7212 0.367409C66.941 0.43034 67.1428 0.530752 67.3138 0.662293C67.4848 0.793833 67.6213 0.953638 67.7147 1.1316C67.8081 1.30955 67.8563 1.50179 67.8563 1.69614C67.8563 1.8905 67.8081 2.08273 67.7147 2.26069C67.6213 2.43865 67.4848 2.59845 67.3138 2.73C67.1428 2.86154 66.941 2.96195 66.7212 3.02488C66.5014 3.08781 66.2684 3.11189 66.0369 3.09559H28.0413C26.9001 3.09559 25.8055 3.47488 24.9985 4.15001C24.1915 4.82514 23.7382 5.74082 23.7382 6.69559C23.7382 7.65037 24.1915 8.56605 24.9985 9.24118C25.8055 9.91631 26.9001 10.2956 28.0413 10.2956H41.5656C43.5932 10.2982 45.5369 10.9732 46.9706 12.1727C48.4044 13.3721 49.2112 14.9982 49.2143 16.6945V21.2143C49.2112 21.585 49.033 21.9397 48.7185 22.2009C48.404 22.4622 47.9788 22.6088 47.5356 22.6088Z" fill="#00C4D1"/>
<path d="M73.5679 44.1692H50.8344C50.4184 44.1667 50.0203 44.0272 49.7261 43.7811C49.4319 43.535 49.2652 43.2019 49.2621 42.8539V40.6681C49.2672 40.2572 49.1049 39.857 48.8019 39.5334C48.499 39.2099 48.0734 38.9822 47.5953 38.8879C47.2856 38.8335 46.9653 38.8376 46.6578 38.8998C46.3503 38.962 46.0632 39.0808 45.8174 39.2475C45.5717 39.4142 45.3735 39.6247 45.2372 39.8637C45.101 40.1026 45.0302 40.3639 45.0299 40.6286V42.8539C45.0299 43.201 44.8659 43.5341 44.5736 43.7805C44.2813 44.0269 43.8844 44.1666 43.4694 44.1692H20.7596C20.2662 44.1637 19.7855 44.3002 19.398 44.5559C19.0106 44.8116 18.74 45.1709 18.6316 45.5736C18.5666 45.8314 18.571 46.098 18.6448 46.3541C18.7185 46.6102 18.8596 46.8493 19.0578 47.054C19.2561 47.2587 19.5064 47.4238 19.7906 47.5373C20.0747 47.6507 20.3856 47.7097 20.7005 47.7099H73.6152C73.9281 47.7068 74.2363 47.6457 74.5175 47.5309C74.7987 47.4162 75.0461 47.2507 75.2417 47.0464C75.4373 46.8421 75.5763 46.604 75.6487 46.3494C75.7211 46.0947 75.7251 45.8298 75.6604 45.5736C75.5533 45.1759 75.288 44.8204 74.9078 44.5652C74.5277 44.3101 74.0553 44.1705 73.5679 44.1692Z" fill="#00C4D1"/>
<path d="M47.1574 41.5385C45.7569 41.5358 44.4146 41.0692 43.4243 40.2407C42.4339 39.4122 41.8762 38.2893 41.873 37.1176V31.767C41.9373 30.6294 42.5228 29.5562 43.5079 28.7701C44.493 27.9841 45.802 27.5455 47.1633 27.5455C48.5247 27.5455 49.8337 27.9841 50.8188 28.7701C51.8039 29.5562 52.3893 30.6294 52.4536 31.767V37.0879C52.4567 37.6714 52.3221 38.2497 52.0573 38.7896C51.7925 39.3294 51.4029 39.8202 50.9108 40.2337C50.4187 40.6473 49.8338 40.9754 49.1897 41.1993C48.5456 41.4232 47.8549 41.5385 47.1574 41.5385ZM47.1574 30.9165C46.8803 30.9215 46.6161 31.0159 46.4201 31.1799C46.2241 31.3439 46.1113 31.5648 46.1053 31.7967V37.0879C46.1329 37.3065 46.2563 37.5089 46.4517 37.6559C46.6471 37.803 46.9006 37.8843 47.1633 37.8843C47.4261 37.8843 47.6796 37.803 47.875 37.6559C48.0703 37.5089 48.1937 37.3065 48.2214 37.0879V31.767C48.2153 31.5335 48.1009 31.3111 47.9023 31.1468C47.7038 30.9826 47.4366 30.8893 47.1574 30.8868V30.9165Z" fill="#9D3BFF"/>
<path d="M47.1579 89.3077C39.3036 89.2998 31.7736 86.6861 26.2198 82.0398C20.6659 77.3934 17.5417 71.0939 17.5323 64.5231V44.1791C17.4536 40.882 18.1618 37.6049 19.6156 34.5397C21.0693 31.4744 23.2394 28.6825 25.9987 26.3275C28.7581 23.9725 32.0513 22.1017 35.6855 20.8245C39.3197 19.5473 43.222 18.8894 47.1638 18.8894C51.1057 18.8894 55.0079 19.5473 58.6422 20.8245C62.2764 22.1017 65.5696 23.9725 68.3289 26.3275C71.0882 28.6825 73.2583 31.4744 74.7121 34.5397C76.1658 37.6049 76.8741 40.882 76.7954 44.1791V64.5231C76.786 71.0957 73.6601 77.3967 68.1037 82.0433C62.5473 86.6899 55.0143 89.3025 47.1579 89.3077ZM47.1579 22.9253C40.424 22.9331 33.9688 25.1752 29.2083 29.1596C24.4478 33.1441 21.7708 38.5456 21.7645 44.1791V64.5231C21.7645 70.1626 24.4424 75.5711 29.209 79.5588C33.9756 83.5465 40.4405 85.7868 47.1816 85.7868C53.9226 85.7868 60.3875 83.5465 65.1541 79.5588C69.9207 75.5711 72.5986 70.1626 72.5986 64.5231V44.1791C72.5923 38.5387 69.9088 33.1313 65.1381 29.1457C60.3674 25.1601 53.9 22.9226 47.1579 22.9253Z" fill="#9D3BFF"/>
</svg>

<svg xmlns="http://www.w3.org/2000/svg" width="90" height="90" fill="none" xmlns:v="https://vecta.io/nano"><path d="M73.686 15.893c3.036 0 5.497-2.06 5.497-4.6s-2.46-4.6-5.497-4.6-5.497 2.06-5.497 4.6 2.46 4.6 5.497 4.6z" fill="#00c4d1"/><path d="M85.318 7.784c2.024 0 3.665-1.373 3.665-3.066s-1.64-3.066-3.665-3.066-3.665 1.373-3.665 3.066 1.64 3.066 3.665 3.066zM3.357 74.62c1.717 0 3.1-1.165 3.1-2.6s-1.392-2.6-3.1-2.6-3.1 1.165-3.1 2.6 1.392 2.6 3.1 2.6z" fill="#9d3bff"/><g fill="#00c4d1"><path d="M11.68 85.846c2.86 0 5.178-1.94 5.178-4.332s-2.318-4.332-5.178-4.332-5.178 1.94-5.178 4.332 2.318 4.332 5.178 4.332zm35.477-55.82c-.56 0-1.1-.186-1.496-.518s-.62-.782-.62-1.252v-6.22c0-.232.055-.463.16-.677s.262-.4.46-.574a2.03 2.03 0 0 1 .686-.384 2.48 2.48 0 0 1 1.62 0c.257.1.5.22.687.384s.352.36.46.574.16.445.16.677v6.22c0 .47-.223.92-.62 1.252s-.935.518-1.496.518z"/><path d="M47.536 22.6c-.442 0-.866-.147-1.18-.4s-.488-.616-.488-.986v-4.52c-.003-.954-.457-1.868-1.264-2.543s-1.9-1.055-3.04-1.057H28.04a8.96 8.96 0 0 1-2.927-.487 7.89 7.89 0 0 1-2.482-1.387c-.7-.594-1.274-1.3-1.658-2.076s-.582-1.608-.582-2.45.198-1.672.582-2.45.948-1.482 1.658-2.076A7.89 7.89 0 0 1 25.114.784a8.96 8.96 0 0 1 2.927-.487h37.996c.23-.016.465.008.684.07a1.77 1.77 0 0 1 .593.295 1.44 1.44 0 0 1 .401.469 1.21 1.21 0 0 1 .142.565 1.21 1.21 0 0 1-.142.565 1.44 1.44 0 0 1-.401.469 1.77 1.77 0 0 1-.593.295 1.97 1.97 0 0 1-.684.07H28.04c-1.14 0-2.236.38-3.043 1.054s-1.26 1.6-1.26 2.546.453 1.87 1.26 2.546 1.902 1.054 3.043 1.054h13.524c2.028.003 3.97.678 5.405 1.877s2.24 2.826 2.244 4.522v4.52c-.003.37-.18.725-.496.987a1.86 1.86 0 0 1-1.183.408zm26.032 21.56H50.834c-.416-.002-.814-.142-1.108-.388s-.46-.58-.464-.927V40.67c.005-.4-.157-.8-.46-1.135s-.73-.55-1.207-.645c-.3-.054-.63-.05-.937.012s-.595.18-.84.348a1.87 1.87 0 0 0-.58.616c-.136.24-.207.5-.207.765v2.225c0 .347-.164.68-.456.927s-.7.386-1.104.4h-22.7c-.493-.005-.974.13-1.362.387s-.658.615-.766 1.018a1.49 1.49 0 0 0 .013.781c.074.256.215.495.413.7a2.1 2.1 0 0 0 .733.483c.283.113.595.172.9.173h52.915a2.46 2.46 0 0 0 .902-.179c.28-.115.53-.28.724-.485s.335-.442.407-.697a1.49 1.49 0 0 0 .012-.776c-.107-.398-.372-.753-.753-1.008s-.852-.395-1.34-.396z"/></g><path d="M47.157 41.54c-1.4-.003-2.743-.47-3.733-1.298s-1.548-1.95-1.55-3.123v-5.35c.064-1.138.65-2.2 1.635-2.997s2.294-1.225 3.655-1.225 2.67.44 3.656 1.225 1.57 1.86 1.635 2.997v5.32a3.81 3.81 0 0 1-.396 1.702 4.47 4.47 0 0 1-1.146 1.444c-.492.414-1.077.742-1.72.966a6.2 6.2 0 0 1-2.032.34zm0-10.622c-.277.005-.54.1-.737.263s-.3.385-.315.617v5.3a.85.85 0 0 0 .346.568 1.19 1.19 0 0 0 .712.228 1.19 1.19 0 0 0 .712-.228c.195-.147.32-.35.346-.568v-5.32c-.006-.233-.12-.456-.32-.62a1.19 1.19 0 0 0-.745-.26v.03zm.001 58.4c-7.854-.008-15.384-2.622-20.938-7.268s-8.678-10.946-8.687-17.517V44.18c-.08-3.297.63-6.574 2.083-9.64S23.24 28.683 26 26.328s6.053-4.226 9.687-5.503S43.224 18.9 47.165 18.9s7.844.658 11.478 1.935 6.927 3.148 9.687 5.503 4.93 5.147 6.383 8.212 2.162 6.342 2.083 9.64v20.344c-.01 6.573-3.135 12.874-8.692 17.52s-13.1 7.26-20.946 7.264zm0-66.382c-6.734.008-13.2 2.25-17.95 6.234s-7.437 9.386-7.444 15.02v20.344c0 5.64 2.678 11.048 7.444 15.036s11.232 6.228 17.973 6.228 13.206-2.24 17.972-6.228S72.6 70.163 72.6 64.523V44.18c-.006-5.64-2.7-11.048-7.46-15.033s-11.238-6.223-17.98-6.22z" fill="#9d3bff"/></svg>
